Numix-Circle/48x48/apps/frescobaldi.svg

<?xml version="1.0" encoding="UTF-8" standalone="no"?>
<svg
   xmlns:dc="http://purl.org/dc/elements/1.1/"
   xmlns:cc="http://creativecommons.org/ns#"
   xmlns:rdf="http://www.w3.org/1999/02/22-rdf-syntax-ns#"
   xmlns:svg="http://www.w3.org/2000/svg"
   xmlns="http://www.w3.org/2000/svg"
   xmlns:xlink="http://www.w3.org/1999/xlink"
   xmlns:sodipodi="http://sodipodi.sourceforge.net/DTD/sodipodi-0.dtd"
   xmlns:inkscape="http://www.inkscape.org/namespaces/inkscape"
   width="48"
   viewBox="0 0 13.546667 13.546667"
   height="48"
   id="svg2"
   version="1.1"
   inkscape:version="0.91 r13725"
   sodipodi:docname="frescobaldi.svg">
  <metadata
     id="metadata331">
    <rdf:RDF>
      <cc:Work
         rdf:about="">
        <dc:format>image/svg+xml</dc:format>
        <dc:type
           rdf:resource="http://purl.org/dc/dcmitype/StillImage" />
        <dc:title />
      </cc:Work>
    </rdf:RDF>
  </metadata>
  <sodipodi:namedview
     pagecolor="#ffffff"
     bordercolor="#666666"
     borderopacity="1"
     objecttolerance="10"
     gridtolerance="10"
     guidetolerance="10"
     inkscape:pageopacity="0"
     inkscape:pageshadow="2"
     inkscape:window-width="1366"
     inkscape:window-height="713"
     id="namedview329"
     showgrid="false"
     inkscape:zoom="8"
     inkscape:cx="27.163801"
     inkscape:cy="23.235007"
     inkscape:window-x="0"
     inkscape:window-y="28"
     inkscape:window-maximized="1"
     inkscape:current-layer="layer2">
    <inkscape:grid
       type="xygrid"
       id="grid3308" />
  </sodipodi:namedview>
  <defs
     id="defs4">
    <linearGradient
       id="linearGradient4368">
      <stop
         style="stop-color:#fe1058;stop-opacity:1;"
         offset="0"
         id="stop4370" />
      <stop
         style="stop-color:#fe4c82;stop-opacity:1;"
         offset="1"
         id="stop4372" />
    </linearGradient>
    <linearGradient
       id="linearGradient4339">
      <stop
         style="stop-color:#ffabcb;stop-opacity:1;"
         offset="0"
         id="stop4341" />
      <stop
         style="stop-color:#ff619c;stop-opacity:1;"
         offset="1"
         id="stop4343" />
    </linearGradient>
    <linearGradient
       inkscape:collect="always"
       xlink:href="#linearGradient4460-9"
       id="linearGradient4033"
       x1="-27"
       y1="13"
       x2="-24"
       y2="13"
       gradientUnits="userSpaceOnUse" />
    <linearGradient
       id="linearGradient4460-9">
      <stop
         id="stop4454"
         style="stop-color:#0cbe82;stop-opacity:1;"
         offset="0" />
      <stop
         id="stop4456"
         style="stop-color:#0dd18e;stop-opacity:1;"
         offset="1" />
    </linearGradient>
    <radialGradient
       inkscape:collect="always"
       xlink:href="#linearGradient4196-2"
       id="radialGradient4204-6"
       cx="24.5"
       cy="24.5"
       fx="24.5"
       fy="24.5"
       r="3.5"
       gradientUnits="userSpaceOnUse" />
    <linearGradient
       id="linearGradient4196-2">
      <stop
         style="stop-color:#f0e598;stop-opacity:1;"
         offset="0"
         id="stop4198-0" />
      <stop
         style="stop-color:#fce11a;stop-opacity:1;"
         offset="1"
         id="stop4200-2" />
    </linearGradient>
    <radialGradient
       inkscape:collect="always"
       xlink:href="#linearGradient4339"
       id="radialGradient4122"
       gradientUnits="userSpaceOnUse"
       cx="14"
       cy="10"
       fx="14"
       fy="10"
       r="15.534595"
       gradientTransform="matrix(0.24120755,-0.10238654,0.10238654,0.24120755,2.3725625,5.7946693)" />
    <radialGradient
       inkscape:collect="always"
       xlink:href="#linearGradient4368"
       id="radialGradient4125"
       gradientUnits="userSpaceOnUse"
       cx="21.000002"
       cy="7.9999995"
       fx="21.000002"
       fy="7.9999995"
       r="15"
       gradientTransform="matrix(0.26340741,0,0,0.26340741,1.2417778,4.6660743)" />
  </defs>
  <g
     inkscape:groupmode="layer"
     id="layer1"
     inkscape:label="Shadow"
     sodipodi:insensitive="true">
    <path
       style="opacity:0.05;fill:#000000;fill-opacity:1;stroke:none"
       d="M 25,2 C 12.297451,2 2,12.297451 2,25 2,31.367153 4.6007106,37.116628 8.78125,41.28125 12.865755,44.99361 18.29568,47.25 24.25,47.25 c 12.702549,0 23,-10.297451 23,-23 0,-5.95432 -2.25639,-11.384245 -5.96875,-15.46875 C 37.116628,4.6007105 31.367153,2 25,2 z M 41.28125,8.78125 C 45.135604,12.894061 47.5,18.418655 47.5,24.5 c 0,12.702549 -10.297451,23 -23,23 C 18.418655,47.5 12.894061,45.135604 8.78125,41.28125 12.940939,45.4251 18.664604,48 25,48 37.702549,48 48,37.702549 48,25 48,18.664604 45.4251,12.940939 41.28125,8.78125 z"
       transform="scale(0.28222223,0.28222223)"
       id="path3978"
       inkscape:connector-curvature="0" />
    <path
       style="opacity:0.1;fill:#000000;fill-opacity:1;stroke:none"
       d="M 41.28125,8.78125 C 44.99361,12.865755 47.25,18.29568 47.25,24.25 c 0,12.702549 -10.297451,23 -23,23 -5.95432,0 -11.384245,-2.25639 -15.46875,-5.96875 C 12.894061,45.135604 18.418655,47.5 24.5,47.5 c 12.702549,0 23,-10.297451 23,-23 0,-6.081345 -2.364396,-11.605939 -6.21875,-15.71875 z"
       transform="scale(0.28222223,0.28222223)"
       id="path3976"
       inkscape:connector-curvature="0" />
    <path
       transform="matrix(4.3274074,0,0,3.2455556,117.19278,-35.348334)"
       d="m -24,13 a 1.5,2 0 1 1 -3,0 1.5,2 0 1 1 3,0 z"
       sodipodi:ry="2"
       sodipodi:rx="1.5"
       sodipodi:cy="13"
       sodipodi:cx="-25.5"
       id="path3952"
       style="opacity:0.2;fill:#000000;fill-opacity:1;stroke:none"
       sodipodi:type="arc" />
  </g>
  <g
     inkscape:groupmode="layer"
     id="layer2"
     inkscape:label="Base">
    <path
       sodipodi:type="arc"
       style="fill:url(#linearGradient4033);fill-opacity:1.0;stroke:none"
       id="path3942"
       sodipodi:cx="-25.5"
       sodipodi:cy="13"
       sodipodi:rx="1.5"
       sodipodi:ry="2"
       d="m -24,13 a 1.5,2 0 1 1 -3,0 1.5,2 0 1 1 3,0 z"
       transform="matrix(0,-4.3274075,3.2455556,0,-35.418894,-103.57556)" />
    <path
       style="opacity:0.1;fill:#000000;fill-opacity:1;stroke:none"
       d="M 40.03125 7.53125 C 43.74361 11.615755 46 17.04568 46 23 C 46 35.702549 35.702549 46 23 46 C 17.04568 46 11.615755 43.74361 7.53125 40.03125 C 11.709416 44.322508 17.537578 47 24 47 C 36.702549 47 47 36.702549 47 24 C 47 17.537578 44.322508 11.709416 40.03125 7.53125 z "
       id="path4027"
       transform="scale(0.28222223,0.28222223)" />
    <path
       style="fill:#000000;fill-opacity:0.09803922;fill-rule:nonzero;stroke:none"
       d="M 25 10 L 22.90625 14.90625 L 19 11 L 19.28125 16 L 14 14 L 16 19.28125 L 11 19 L 14.875 22.875 L 10 24.9375 L 14.90625 27.09375 L 11 31 L 16 30.71875 L 14 36 L 19.28125 34 L 19 39 L 22.90625 35.09375 L 25 40 L 27.0625 35.21875 L 30.59375 39 L 30.53125 33.9375 L 36 36 L 34 30.71875 L 39 31 L 35.125 27.125 L 40 25.0625 L 35.09375 22.90625 L 39 19 L 34 19.28125 L 36 14 L 30.71875 16 L 31 11 L 27.09375 14.90625 L 25 10 z "
       transform="scale(0.28222223,0.28222223)"
       id="path4225" />
    <path
       style="fill:url(#radialGradient4125);fill-opacity:1;fill-rule:nonzero;stroke:none"
       d="M 8.3537781,10.724445 6.7733334,9.0311112 5.0800002,10.724445 5.2211112,8.3255558 2.8222223,8.4666668 4.5155558,6.7733335 2.8222223,5.0800001 5.2211112,5.2211112 5.0800002,2.8222223 6.7733334,4.5155557 8.4666669,2.8222223 8.3255559,5.2211112 10.724445,5.0800001 9.0311113,6.7733335 10.724445,8.4666668 8.3255559,8.3255558 z"
       id="path4189"
       inkscape:connector-curvature="0"
       sodipodi:nodetypes="ccccccccccccccccc" />
    <path
       inkscape:connector-curvature="0"
       style="fill:#000000;fill-opacity:0.09803922;fill-rule:nonzero;stroke:none"
       d="M 7.478815,3.8099997 6.77326,4.5155553 6.464579,4.2068747 6.208815,4.7977775 5.441524,4.5155553 5.17694,4.4097219 5.22104,5.2211108 4.409652,5.1770138 4.515485,5.4415972 4.797707,6.2088888 4.197985,6.4558333 l 0.3175,0.3175 L 3.818749,7.4700694 4.206804,7.6464583 4.797707,7.9022222 4.630138,8.3608333 5.22104,8.3255553 5.14166,9.7102081 5.441522,9.5955554 6.208813,9.3133332 l 0.08819,0.1940278 0.47625,-0.4762501 0.855486,0.9172227 0.0088,-0.0088 0.264583,-0.6261809 0.432153,0.15875 -0.0088,-1.1465278 1.172986,0.070556 L 9.313253,7.902242 9.912975,7.6552976 9.03103,6.7733531 9.50728,6.2971031 9.313253,6.2089081 9.595475,5.4416165 9.710128,5.1417553 8.325475,5.2211303 8.360755,4.6302276 7.902144,4.797797 7.64638,4.2068942 7.47881,3.8100192 z"
       id="path4189-4" />
    <path
       style="fill:url(#radialGradient4122);fill-opacity:1;fill-rule:nonzero;stroke:none"
       d="M 9.877778,9.8777777 7.6200002,9.0311109 6.7733335,11.006667 5.9266668,9.031111 3.668889,9.8777777 4.5155557,7.6199999 2.5400001,6.7586606 4.5155557,5.9266665 3.668889,3.6688886 5.9266668,4.5155553 6.7733334,2.5399997 7.6200002,4.5155553 9.877778,3.6688886 9.0311115,5.9266665 11.006667,6.7880058 9.0311119,7.6200006 z"
       id="path4184"
       inkscape:connector-curvature="0"
       sodipodi:nodetypes="ccccccccccccccccc" />
    <path
       transform="matrix(0.64507938,0,0,0.64507938,-8.8900004,-8.8900005)"
       d="m 28,24.5 a 3.5,3.5 0 1 1 -7,0 3.5,3.5 0 1 1 7,0 z"
       sodipodi:ry="3.5"
       sodipodi:rx="3.5"
       sodipodi:cy="24.5"
       sodipodi:cx="24.5"
       id="path4364"
       style="fill:#000000;fill-opacity:0.09803922;fill-rule:nonzero;stroke:none"
       sodipodi:type="arc" />
    <path
       sodipodi:type="arc"
       style="fill:url(#radialGradient4204-6);fill-opacity:1;fill-rule:nonzero;stroke:none"
       id="path4194"
       sodipodi:cx="24.5"
       sodipodi:cy="24.5"
       sodipodi:rx="3.5"
       sodipodi:ry="3.5"
       d="m 28,24.5 a 3.5,3.5 0 1 1 -7,0 3.5,3.5 0 1 1 7,0 z"
       transform="matrix(0.64507938,0,0,0.64507938,-9.0311114,-9.0311115)" />
    <path
       style="fill:#1a1a1a;stroke:#1a1a1a;stroke-width:0.10873224;stroke-linecap:round;stroke-linejoin:round;stroke-miterlimit:4.5;stroke-opacity:1;stroke-dasharray:none"
       d="M 6.2446308,8.2424465 C 6.0492783,8.1520515 5.9788155,7.9118167 5.9700385,7.6593855 c -0.0065,-0.1866425 0.00249,-0.2302089 0.038298,0.035466 0.034689,0.2572579 0.2731962,0.5397455 0.5001308,0.5397455 0.3678099,0 0.6693201,-0.3854143 0.6693201,-0.8615571 0,-0.1173257 -0.035991,-0.1766091 -0.2557133,-0.1873522 l -0.2557123,-0.0125 0.2461203,-0.028549 C 7.1983263,7.1193327 7.1688005,6.9294643 7.2004463,6.6178957 7.2234618,6.3438847 7.2606555,6.0501765 7.2831005,5.965206 7.3202443,5.8245862 7.2802695,5.8022079 6.837896,5.7159762 6.2486131,5.6011076 5.9548002,5.6516802 5.7193412,5.9085095 5.361868,6.2984264 5.6168456,6.821846 6.168883,6.8313327 c 0.2558281,0.0044 0.274035,0.014989 0.1438235,0.083631 C 5.9712161,7.0949978 5.473033,6.7232454 5.473033,6.2883864 c 0,-0.6718645 0.6371628,-0.9645712 1.4736236,-0.6769695 0.3553118,0.1221672 0.364884,0.1213882 0.6686974,-0.054411 0.2381702,-0.1378162 0.3266553,-0.1582501 0.3893147,-0.089904 0.123652,0.1348741 -0.045822,0.3107319 -0.3506963,0.363908 -0.2283369,0.039825 -0.2603443,0.072562 -0.2943343,0.3010253 -0.020978,0.1409872 -0.02017,0.4218139 0.00181,0.6240607 0.078203,0.3923433 0.128717,0.3714088 0.4641658,0.3853136 C 7.509274,7.1924945 7.3921137,7.3828241 7.3373727,7.5843156 7.1954739,8.1156988 6.6633409,8.4361912 6.2446379,8.2424465 z"
       id="path4291"
       inkscape:connector-curvature="0"
       sodipodi:nodetypes="sssssscccsssscsssssscccs" />
  </g>
  <g
     inkscape:groupmode="layer"
     id="layer3"
     inkscape:label="Symbol" />
</svg>

<svg xmlns="http://www.w3.org/2000/svg" width="48" viewBox="0 0 13.546667 13.546667" height="48"><defs><linearGradient id="linearGradient4033" x1="-27" x2="-24" gradientUnits="userSpaceOnUse"><stop stop-color="#0cbe82" stop-opacity="1"/><stop offset="1" stop-color="#0dd18e" stop-opacity="1"/></linearGradient><radialGradient id="radialGradient4204-6" cx="24.5" cy="24.5" r="3.5" gradientUnits="userSpaceOnUse"><stop stop-color="#f0e598" stop-opacity="1"/><stop offset="1" stop-color="#fce11a" stop-opacity="1"/></radialGradient><radialGradient id="radialGradient4122" gradientUnits="userSpaceOnUse" cx="14" cy="10" r="15.535" gradientTransform="matrix(0.24120755,-0.10238654,0.10238654,0.24120755,2.3725625,5.7946693)"><stop stop-color="#ffabcb" stop-opacity="1"/><stop offset="1" stop-color="#ff619c" stop-opacity="1"/></radialGradient><radialGradient id="radialGradient4125" gradientUnits="userSpaceOnUse" cx="21" cy="8" r="15" gradientTransform="matrix(0.26340741,0,0,0.26340741,1.2417778,4.6660743)"><stop stop-color="#fe1058" stop-opacity="1"/><stop offset="1" stop-color="#fe4c82" stop-opacity="1"/></radialGradient></defs><g><path d="m 25 2 c -12.703 0 -23 10.297 -23 23 0 6.367 2.601 12.12 6.781 16.281 4.085 3.712 9.514 5.969 15.469 5.969 c 12.703 0 23 -10.297 23 -23 0 -5.954 -2.256 -11.384 -5.969 -15.469 c -4.165 -4.181 -9.914 -6.781 -16.281 -6.781 z m 16.281 6.781 c 3.854 4.113 6.219 9.637 6.219 15.719 c 0 12.703 -10.297 23 -23 23 c -6.081 0 -11.606 -2.364 -15.719 -6.219 4.16 4.144 9.883 6.719 16.219 6.719 12.703 0 23 -10.297 23 -23 0 -6.335 -2.575 -12.06 -6.719 -16.219 z" transform="scale(0.28222223,0.28222223)" opacity="0.05" fill="#000" stroke="none" fill-opacity="1"/><path d="m 41.28 8.781 c 3.712 4.085 5.969 9.514 5.969 15.469 c 0 12.703 -10.297 23 -23 23 -5.954 0 -11.384 -2.256 -15.469 -5.969 c 4.113 3.854 9.637 6.219 15.719 6.219 c 12.703 0 23 -10.297 23 -23 0 -6.081 -2.364 -11.606 -6.219 -15.719 z" transform="scale(0.28222223,0.28222223)" opacity="0.1" fill="#000" stroke="none" fill-opacity="1"/><path transform="matrix(4.3274074,0,0,3.2455556,117.19278,-35.348334)" d="m -24 13 a 1.5 2 0 1 1 -3 0 1.5 2 0 1 1 3 0 z" opacity="0.2" fill="#000" stroke="none" fill-opacity="1"/></g><g><path d="m -24 13 a 1.5 2 0 1 1 -3 0 1.5 2 0 1 1 3 0 z" transform="matrix(0,-4.3274075,3.2455556,0,-35.418894,-103.57556)" fill="url(#linearGradient4033)" stroke="none" fill-opacity="1"/><path d="m 40.03 7.531 c 3.712 4.085 5.969 9.514 5.969 15.469 c 0 12.703 -10.297 23 -23 23 c -5.954 0 -11.384 -2.256 -15.469 -5.969 c 4.178 4.291 10.01 6.969 16.469 6.969 c 12.703 0 23 -10.297 23 -23 c 0 -6.462 -2.677 -12.291 -6.969 -16.469 z" transform="scale(0.28222223,0.28222223)" opacity="0.1" fill="#000" stroke="none" fill-opacity="1"/><path d="M 25 10 L 22.90625 14.90625 L 19 11 L 19.28125 16 L 14 14 L 16 19.28125 L 11 19 L 14.875 22.875 L 10 24.9375 L 14.90625 27.09375 L 11 31 L 16 30.71875 L 14 36 L 19.28125 34 L 19 39 L 22.90625 35.09375 L 25 40 L 27.0625 35.21875 L 30.59375 39 L 30.53125 33.9375 L 36 36 L 34 30.71875 L 39 31 L 35.125 27.125 L 40 25.0625 L 35.09375 22.90625 L 39 19 L 34 19.28125 L 36 14 L 30.71875 16 L 31 11 L 27.09375 14.90625 L 25 10 z " transform="scale(0.28222223,0.28222223)" fill="#000" fill-rule="nonzero" stroke="none" fill-opacity="0.098"/><path d="m 8.354 10.724 -1.58 -1.693 -1.693 1.693 0.141 -2.399 -2.399 0.141 1.693 -1.693 -1.693 -1.693 2.399 0.141 -0.141 -2.399 1.693 1.693 1.693 -1.693 -0.141 2.399 2.399 -0.141 -1.693 1.693 1.693 1.693 -2.399 -0.141 z" fill="url(#radialGradient4125)" fill-rule="nonzero" stroke="none" fill-opacity="1"/><path d="m 7.479 3.81 -0.706 0.706 -0.309 -0.309 -0.256 0.591 -0.767 -0.282 -0.265 -0.106 0.044 0.811 -0.811 -0.044 0.106 0.265 0.282 0.767 -0.6 0.247 l 0.317 0.317 l -0.697 0.697 0.388 0.176 0.591 0.256 -0.168 0.459 0.591 -0.035 -0.079 1.385 0.3 -0.115 0.767 -0.282 l 0.088 0.194 0.476 -0.476 0.855 0.917 0.009 -0.009 0.265 -0.626 0.432 0.159 -0.009 -1.147 1.173 0.071 l -0.185 -0.494 0.6 -0.247 -0.882 -0.882 0.476 -0.476 -0.194 -0.088 0.282 -0.767 0.115 -0.3 -1.385 0.079 0.035 -0.591 -0.459 0.168 -0.256 -0.591 -0.168 -0.397 z" fill="#000" fill-rule="nonzero" stroke="none" fill-opacity="0.098"/><path d="m 9.878 9.878 -2.258 -0.847 -0.847 1.976 -0.847 -1.976 -2.258 0.847 0.847 -2.258 -1.976 -0.861 1.976 -0.832 -0.847 -2.258 2.258 0.847 0.847 -1.976 0.847 1.976 2.258 -0.847 -0.847 2.258 1.976 0.861 -1.976 0.832 z" fill="url(#radialGradient4122)" fill-rule="nonzero" stroke="none" fill-opacity="1"/><path transform="matrix(0.64507938,0,0,0.64507938,-8.8900004,-8.8900005)" d="m 28 24.5 a 3.5 3.5 0 1 1 -7 0 3.5 3.5 0 1 1 7 0 z" fill="#000" fill-rule="nonzero" stroke="none" fill-opacity="0.098"/><path d="m 28 24.5 a 3.5 3.5 0 1 1 -7 0 3.5 3.5 0 1 1 7 0 z" transform="matrix(0.64507938,0,0,0.64507938,-9.0311114,-9.0311115)" fill="url(#radialGradient4204-6)" fill-rule="nonzero" stroke="none" fill-opacity="1"/><path d="m 6.245 8.242 c -0.195 -0.09 -0.266 -0.331 -0.275 -0.583 c -0.006 -0.187 0.002 -0.23 0.038 0.035 0.035 0.257 0.273 0.54 0.5 0.54 0.368 0 0.669 -0.385 0.669 -0.862 0 -0.117 -0.036 -0.177 -0.256 -0.187 l -0.256 -0.013 0.246 -0.029 c 0.286 -0.025 0.256 -0.215 0.288 -0.527 0.023 -0.274 0.06 -0.568 0.083 -0.653 0.037 -0.141 -0.003 -0.163 -0.445 -0.249 -0.589 -0.115 -0.883 -0.064 -1.119 0.193 -0.357 0.39 -0.102 0.913 0.45 0.923 c 0.256 0.004 0.274 0.015 0.144 0.084 c -0.341 0.18 -0.84 -0.192 -0.84 -0.627 c 0 -0.672 0.637 -0.965 1.474 -0.677 0.355 0.122 0.365 0.121 0.669 -0.054 0.238 -0.138 0.327 -0.158 0.389 -0.09 0.124 0.135 -0.046 0.311 -0.351 0.364 -0.228 0.04 -0.26 0.073 -0.294 0.301 -0.021 0.141 -0.02 0.422 0.002 0.624 0.078 0.392 0.129 0.371 0.464 0.385 c -0.316 0.051 -0.434 0.241 -0.488 0.443 -0.142 0.531 -0.674 0.852 -1.093 0.658 z" stroke-opacity="1" stroke-dasharray="none" fill="#1a1a1a" stroke="#1a1a1a" stroke-linejoin="round" stroke-linecap="round" stroke-width="0.109" stroke-miterlimit="4.5"/></g></svg>
